assets/skill/front-ts.svg

<svg width="58" height="57" viewBox="0 0 58 57" fill="none" xmlns="http://www.w3.org/2000/svg">
<rect x="0.875732" width="56.7516" height="56.7516" rx="8.25478" fill="url(#paint0_linear_92_667)"/>
<path d="M6.55066 28.3757V51.0763H29.2513H51.9519V28.3757V5.67505H29.2513H6.55066V28.3757Z" fill="#007ACC"/>
<path d="M43.1915 26.4965C44.2655 26.7516 45.2413 27.3258 45.996 28.1466C46.4116 28.5907 46.7725 29.0849 47.0707 29.6184C47.0851 29.6773 45.1343 31.0133 43.9523 31.7623C43.9091 31.7918 43.7393 31.5988 43.5471 31.311C43.3316 30.9309 43.0253 30.6128 42.6566 30.3866C42.288 30.1604 41.8692 30.0333 41.4393 30.0174C40.0795 29.9226 39.197 30.6503 39.2115 31.8637C39.1999 32.1617 39.2662 32.4575 39.4036 32.7206C39.7032 33.3535 40.2573 33.7313 42.0015 34.5015C45.2048 35.9112 46.5854 36.8417 47.4471 38.1647C47.9267 39.0002 48.2217 39.9327 48.3114 40.8968C48.401 41.8609 48.2831 42.8334 47.966 43.7461C47.5311 44.7484 46.8412 45.6134 45.9681 46.2513C45.0949 46.8891 44.0704 47.2766 43.0009 47.3733C41.8651 47.5064 40.7175 47.4943 39.5846 47.3374C37.8489 47.0464 36.2499 46.196 35.0216 44.9105C34.5578 44.3769 34.1652 43.7831 33.854 43.1443C33.9851 43.0448 34.1232 42.9551 34.2672 42.8761C34.4658 42.76 35.2282 42.3169 35.9329 41.8949L37.2142 41.1312L37.4833 41.5352C37.9394 42.201 38.5202 42.768 39.1922 43.2032C39.8686 43.5819 40.6346 43.7612 41.405 43.7214C42.1753 43.6816 42.9197 43.424 43.5551 42.9775C43.8809 42.6514 44.0843 42.219 44.13 41.7555C44.1756 41.2921 44.0606 40.8269 43.805 40.4411C43.4558 39.9325 42.7447 39.5041 40.7234 38.6095C39.1382 38.0616 37.6949 37.1549 36.5015 35.957C35.9322 35.2947 35.5118 34.5133 35.2698 33.6675C35.0907 32.7039 35.0642 31.7173 35.1913 30.7452C35.4289 29.6267 35.9974 28.6098 36.8199 27.8322C37.6424 27.0547 38.6792 26.5542 39.7896 26.3984C40.922 26.2565 42.0688 26.2896 43.1915 26.4965ZM32.6639 28.4082L32.6784 30.284H26.842V47.2196H22.7129V30.284H16.875V28.4459C16.8591 27.8152 16.8757 27.1842 16.9246 26.5554C16.9454 26.526 20.4979 26.5112 24.8047 26.5194L32.6415 26.5407L32.6639 28.4082Z" fill="white"/>
<defs>
<linearGradient id="paint0_linear_92_667" x1="29.2515" y1="0" x2="29.2515" y2="56.7516" gradientUnits="userSpaceOnUse">
<stop stop-color="#FDFDFD"/>
<stop offset="1" stop-color="#F5F4F4"/>
</linearGradient>
</defs>
</svg>

<svg xmlns="http://www.w3.org/2000/svg" width="58" height="57" fill="none" viewBox="0 0 58 57"><rect width="56.752" height="56.752" x=".876" fill="url(#paint0_linear_92_667)" rx="8.255"/><path fill="#007acc" d="M6.55 28.376v22.7h45.401V5.675h-45.4z"/><path fill="#fff" d="M43.192 26.497a5.55 5.55 0 0 1 2.804 1.65c.416.444.776.938 1.075 1.471.014.06-1.937 1.395-3.119 2.144-.043.03-.213-.163-.405-.451a2.6 2.6 0 0 0-.89-.924 2.5 2.5 0 0 0-1.218-.37c-1.36-.094-2.242.633-2.227 1.847-.012.298.054.594.192.857.3.633.853 1.01 2.597 1.78 3.204 1.41 4.584 2.34 5.446 3.664a6.78 6.78 0 0 1 .519 5.581 6.1 6.1 0 0 1-1.998 2.505 5.94 5.94 0 0 1-2.967 1.122 13.5 13.5 0 0 1-3.416-.036 8.2 8.2 0 0 1-4.563-2.427 8 8 0 0 1-1.168-1.766q.198-.15.413-.268c.199-.116.961-.56 1.666-.981l1.281-.764.27.404a6.1 6.1 0 0 0 1.708 1.668 4.09 4.09 0 0 0 4.363-.226 2.02 2.02 0 0 0 .25-2.536c-.35-.509-1.06-.937-3.082-1.832a11.1 11.1 0 0 1-4.221-2.652 6.1 6.1 0 0 1-1.232-2.29 9.4 9.4 0 0 1-.079-2.922 5.6 5.6 0 0 1 1.629-2.913 5.4 5.4 0 0 1 2.97-1.434 11.1 11.1 0 0 1 3.401.099m-10.528 1.911.014 1.876h-5.836V47.22h-4.13V30.284h-5.837v-1.838q-.024-.946.05-1.89c.02-.03 3.573-.045 7.88-.037l7.837.022z"/><defs><linearGradient id="paint0_linear_92_667" x1="29.252" x2="29.252" y1="0" y2="56.752" gradientUnits="userSpaceOnUse"><stop stop-color="#fdfdfd"/><stop offset="1" stop-color="#f5f4f4"/></linearGradient></defs></svg>
